X:45
T:Allons vite fillettes
R:Bourre
C:trad
A:Arige
O:France
M:2/4
L:1/8
Q:1/4=110
K:C
EF|G>AAG |EF1G>A|G2:|:CD|EE/2E/2 EG|GF DE|FG/2F/2 ED|1EC:|2C2||
